X: 13710
T: For The Sake Of Old Decency
R: reel
M: 4/4
K: Dmajor
A2FD EFDF|A2FD EDB,D|A2FD EFDF|AFED B,DDF:|
D3F A2FA|Beed Bcd2|D3F A2FA|1 B2AF FEEF:|2 ABde fedB||

